X:1004
M:C|
L:1/8
Q:1/4=120
K:A Minor
e>AA>B e>AA<g|BG`G>A B>AGB |e>AAB  e>A`A<e|B<G`G>A  B>A A2:|
a>ge>a g>e g2|e>dg>d e>de<g|a>gea  g<eTg2 |B<(GG>)A B<A A2:|

